**kern
*staff1
=1-
*clefG2
*M4/4
2g
1r
4g
4e
=2
4f
1r
4g
2a
=3
4d
2G
4dd
4b
4G
4cc
4E
=4
4a
4F
4b
4G
2cc
2A
=5
4b
[1G
4dd
4dd
4g
=6
4b
1G]
4cc
2b
=7
4b
2G
4dd
4cc
4A
4b
4G
=8
4a
4F
4a
4F
2g
2E
=9
2g
2E
4g
4c
8g
8c
8g
8c
=10
4g
4c
4f
4d
2e
2A
=11
1r
4A
8d
8e
4f
4c
=12
4e
1r
8f
8g
4a
4g
=13
2r
2G
2g
4.E
8E
=14
4.e
4A
4A
8e
4f
2D
4a
=15
4g
2E
4g
4e
4c
8d
8B
8e
8c
=16
4f
4d
4e
4c
4d
4B
4g
4c
=17
4g
1r
8f
8g
4a
4cc
=18
4b
2r
4cc
4r
2G
4dd
=19
4dd
4F#
4b
4G
4a
4D
4b
[4G
=20
4r
4G]
4dd
4G
4dd
4F#
4b
4G
=21
4a
4d
4b
2G
4r
4g
4c
=22
4g
4B
4g
4c
2g
4G
4c
=23
4e
4r
4ee
4c
4dd
4B
4cc
4c
=24
2b
4G
4G
4cc
4r
8ee
8c
8dd
8d
=25
4cc
4e
4b
4g
2a
2d
=26
4b
[1G
8b
8cc
8dd
8cc
8dd
8ee
=27
4dd
1G]
4cc
2b
=28
1cc
2r
4c
4d
=29
1r
2e
4e
4f
=30
8d
1r
8c
8d
8e
4d
4c
=31
4a
4F
4b
4G
2cc
2A
=32
4dd
4d
4ee
4c
2ff
8F
8G
8A
8B
=33
2ee
8c
8d
8e
8f
4r
4g
4dd
4G
=34
8cc
8A
8dd
8B
8ee
8c
8dd
8B
4cc
2A
4cc
=35
4b
2G
8b
8cc
4dd
2r
[4cc
=36
4r
4cc]
4b
8B
8c
2a
4d
[4c
=37
2g
4c]
4B
4r
2A
[4cc
=38
2G
4cc]
4b
4a
4r
[4g
[4c
=39
4g]
8c]
8B
2a
8A
8G
4F
4f
4D
=40
2e
2A
2f#
2D
=41
4dd
4D
4cc
4A
2b
2E
=42
4cc
1r
4b
4a
4a
=43
4b
4G
2b
4F
2E
4a
=44
2g
4c
4B
4cc
2A
4b
=45
2a
4d
4c
4r
2B
4dd
=46
4g
4c
2cc
4c
4.G
4b
8G
=47
2cc
2A
4r
2F
4a
=48
4b
4G
4dd
4D
2cc#
2A
=49
4dd
2D
4dd
4ccn
4r
[4a
4d
=50
4c
4a]
2g
4B
4c
4f
4d
=51
4e
[1A
4cc
4a
4f
=52
4e
1A]
4d
2c#
=53
4r
1D
4.a
8g
4f
=54
4d
1D
4a
4r
[4a
=55
1D
8a]
8g
4f
4d
4a
=56
4r
1D
4.f
8e
4d
=57
4a
1D
4a
4r
[4f
=58
1D
8f]
8g
4a
4f
4d
=59
4r
2D
4.dd
2G
8cc
4b
=60
4a
1D
4.g
16f#
16e
4f#
=61
[1g
[1G
=62
1g]
1G]
==
*-
